X:1
T:The harebell Sheet music supplied by www.theperfectscores.com
%%score { 1 | 2 }
L:1/8
Q:1/8=75
M:3/8
I:linebreak $
K:Dmin
V:1 treble nm="Piano Collection for Beginners - Grade 1"
V:2 bass 
V:1
"^Moderato" (!1!c>!2!d!1!c | !5!a!4!g!3!f | !1!A2 !4!d | !3!c2) z | (!5!c!2!G!3!A | !4!B!1!D!2!E |$ %6
 !3!F3 | !5!A2) z | (!1!c>!2!d!1!c | !5!a!4!g!3!f | !1!A2 !4!d | !3!c2) z | !5!c!2!G!3!A |$ %13
 (!4!B!1!D!2!E |!>(! !3!F2 !5!A!>)! | !3!F2) z || (!3!B2 A | !1!G!5!d!4!c | c2 !1!F | !2!A2) z |$ %20
 (!3!B2 A | !1!G!5!dc | c3 | A2) z | (c>!2!dc | agf | A2 d | c2) z |$ (cG!3!A | B!1!DE | %30
!>(! F2 A!>)! | F2) z || (G2 c | e!4!dc | c2 !2!=B | d2) z |$!<(! (!1!G2 d | f!4!e!<)!!>(!d | %38
 d2 c!>)! | e2) z |!<(! (G2 c | e!<)!!4!d!>(!c | c2 =B!>)! | d2) z |$ (!1!G2!<(! d | f!4!e!<)!d | %46
!>(! c2 e!>)! | c2) z || (c>!2!dc | !5!a!4!gf | A2 d) | c2 z |$ (!5!c!2!G!3!A | !4!B!1!D!2!E | %54
 !3!F3 | !5!A2) z | (!1!c>!2!d!1!c | !5!a!4!gf | !1!A2 d | !3!c2) z |$ (!5!c!2!G!3!A | %61
 !4!B!1!D!2!E | F2 A | F2) z || (!3!B2 !2!A | !1!Gd!4!c | c2 !1!F | !2!A2) z |$ (!3!B2 A | %69
 !1!G!5!dc | !4!c3 | !2!A2) z |"_St" !1!c>!2!d!1!c | !5!a!4!g!3!f | !1!A2 !4!d |$ c2 z | %76
 (!5!c!2!G!3!A | !4!B!1!D!2!E | !3!F2 !5!A | !3!F2) z || !1!!5![CA] z z | [A,F]2 z |] %82
V:2
!<(!"_legato" !5!F,!3!A,!1!C!<)! | F,!>(!A,C!>)! | F,A,C | F,A,C | !5!C,!2!G,!1!B, | C,G,B, |$ %6
 !5!F,A,C | F,A,C |!<(! F,A,C!<)! |!>(! F,A,C!>)! | F,A,C | F,A,C | C,G,B, |$ C,G,B, | %14
 !5!F,!3!A,!1!C | !5!!3![F,A,]2 z || !5!C,!2!G,!1!B, | C,G,B, | !5!F,!3!A,!1!C | F,A,C |$ %20
 !5!C,!2!G,!1!B, | C,G,B, | !5!F,!3!A,C | F,A,C |!<(! F,A,C!<)! |!>(! F,A,C!>)! | F,A,C | F,A,C |$ %28
 C,!2!G,!1!B, | C,G,B, | !5!F,A,!1!C | [F,A,]2 z ||!<(! C,E,!1!G, | C,E,!<)!G, | %34
!>(! !4!D,!2!F,!1!G, | !5!=B,,!>)!!2!F,!1!G, |$ G,,!2!D,G, | G,,D,G, | !5!C,!3!E,G, | C,E,G, | %40
 C,E,G, | C,E,G, | !4!D,!2!F,!1!G, | !5!=B,,!2!F,!1!G, |$ G,,!2!D,G, | G,,D,G, | !5!C,!3!E,G, | %47
 !5![C,E,]2 z ||!<(! !5!F,!3!A,!1!C!<)! |!>(! F,A,C!>)! | F,A,C | F,A,C |$ !5!C,G,B, | C,G,B, | %54
 F,A,!1!C | F,A,C |!<(! !5!F,!3!A,!1!C!<)! |!>(! F,A,C!>)! | F,A,C | F,A,C |$ !5!C,G,!1!B, | %61
 C,G,B, |!>(! F,!3!A,!1!C!>)! | !5![F,A,]2 z || !5!C,!2!G,!1!B, | C,G,B, | !5!F,!3!A,!1!C | %67
 F,A,C |$ !5!C,!2!G,!1!B, | C,G,B, | !5!F,!3!A,!1!C | F,A,C |!<(! F,A,C!<)! |!>(! F,A,C!>)! | %74
 F,A,C |$ F,A,C | !5!C,!2!G,!1!B, | C,G,B, |!>(! !5!F,!3!A,!1!C | !5!!3![F,A,]2!>)! z || %80
"^www.theperfectscor" !5!!1![F,,C,] z z | [F,,C,]2"_com" z |] %82

